context/brand-context/default/img/icons/image.svg

<svg id="i-image" viewBox="0 0 18 18" xmlns="http://www.w3.org/2000/svg"><path d="m10.0046024 0c.5497429 0 1.3179837.32258606 1.707238.71184039l4.5763192 4.57631922c.3931386.39313859.7118404 1.16760135.7118404 1.71431368v8.98899651c0 1.1092806-.8945138 2.0085302-1.9940603 2.0085302h-12.01187942c-1.10128908 0-1.99406028-.8926228-1.99406028-1.9950893v-14.00982141c0-1.10185739.88743329-1.99508929 1.99961498-1.99508929zm-3.49645283 10.1752453-3.89407257 6.7495552c.11705545.048464.24538859.0751995.37998328.0751995h10.60290092l-2.4329715-4.2154691-1.57494129 2.7288098zm8.49779013 6.8247547c.5463747 0 .9940603-.4506622.9940603-1.0085302v-8.98899651c0-.28393444-.2150684-.80332809-.4189472-1.0072069l-4.5763192-4.57631922c-.2038461-.20384606-.718603-.41894717-1.0001312-.41894717h-7.00498742c-.55709576 0-.99961498.44271433-.99961498.99508929v13.98991071l4.50814957-7.81026689 3.08089884 5.33809539 1.57494129-2.7288097 3.5875735 6.2159812zm-3.0059397-11c1.1045695 0 2 .8954305 2 2s-.8954305 2-2 2-2-.8954305-2-2 .8954305-2 2-2zm0 1c-.5522847 0-1 .44771525-1 1s.4477153 1 1 1 1-.44771525 1-1-.4477153-1-1-1z" fill="currentColor" fill-rule="evenodd"/></svg>

<svg id="i-image" viewBox="0 0 18 18" xmlns="http://www.w3.org/2000/svg"><path d="M10.005 0c.55 0 1.318.323 1.707.712l4.576 4.576c.393.393.712 1.168.712 1.714v8.99C17 17.1 16.105 18 15.006 18H2.994A1.994 1.994 0 0 1 1 16.005V1.995C1 .893 1.887 0 3 0zM6.508 10.175l-3.894 6.75a.991.991 0 0 0 .38.075h10.603l-2.433-4.215-1.575 2.728zM15.006 17c.546 0 .994-.45.994-1.009V7.002c0-.283-.215-.803-.419-1.007L11.005 1.42c-.204-.204-.719-.419-1-.419H3c-.557 0-1 .443-1 .995v13.99l4.508-7.81 3.081 5.338 1.575-2.729L14.752 17zM12 6a2 2 0 1 1 0 4 2 2 0 0 1 0-4zm0 1a1 1 0 1 0 0 2 1 1 0 0 0 0-2z" fill="currentColor" fill-rule="evenodd"/></svg>
